style-guide/assets/xd-icons-tag-tiny.svg

<?xml version="1.0" encoding="UTF-8"?>
<svg width="12px" height="12px" viewBox="0 0 12 12" version="1.1" xmlns="http://www.w3.org/2000/svg" xmlns:xlink="http://www.w3.org/1999/xlink">
    <!-- Generator: Sketch 51.3 (57544) - http://www.bohemiancoding.com/sketch -->
    <title>tag</title>
    <desc>Created with Sketch.</desc>
    <defs></defs>
    <g id="tag" stroke="none" stroke-width="1" fill="none" fill-rule="evenodd">
        <path d="M10.00025,5.586 L6.00025,9.586 L2.41425,6 L6.41425,2 L10.00025,2 L10.00025,5.586 Z M11.00025,0 L6.00025,0 C5.73425,0 5.48025,0.106 5.29325,0.293 L0.29325,5.293 C-0.09775,5.684 -0.09775,6.316 0.29325,6.707 L5.29325,11.707 C5.48825,11.902 5.74425,12 6.00025,12 C6.25625,12 6.51225,11.902 6.70725,11.707 L11.70725,6.707 C11.89525,6.52 12.00025,6.265 12.00025,6 L12.00025,1 C12.00025,0.448 11.55325,0 11.00025,0 Z M8.00025,4.9884 C8.26025,4.9884 8.52025,4.8784 8.71025,4.6984 C8.89025,4.5094 9.00025,4.2484 9.00025,3.9884 C9.00025,3.7284 8.89025,3.4684 8.71025,3.2784 C8.33025,2.9084 7.66025,2.9084 7.29025,3.2784 C7.10925,3.4684 7.00025,3.7284 7.00025,3.9884 C7.00025,4.2484 7.10925,4.5094 7.29025,4.6984 C7.47925,4.8784 7.74025,4.9884 8.00025,4.9884" id="Fill-1" fill="#000000"></path>
    </g>
</svg>

<svg viewBox="0 0 12 12" xmlns="http://www.w3.org/2000/svg">
  <path d="M10 5.586l-4 4L2.414 6l4-4H10v3.586zM11 0H6a1 1 0 0 0-.707.293l-5 5a.999.999 0 0 0 0 1.414l5 5a.997.997 0 0 0 1.414 0l5-5A.997.997 0 0 0 12 6V1a1 1 0 0 0-1-1zM8 4.988c.26 0 .52-.11.71-.29.18-.189.29-.45.29-.71 0-.26-.11-.52-.29-.71-.38-.37-1.05-.37-1.42 0-.18.19-.29.45-.29.71 0 .26.11.521.29.71.19.18.45.29.71.29"/>
</svg>
